src/actions/24/password-copy.svg

<svg xmlns="http://www.w3.org/2000/svg" viewBox="0 0 24 24">
    <defs>
        <style id="current-color-scheme" type="text/css">
            .ColorScheme-Text{color:#050505;opacity:.7}
        </style>
    </defs>
    <path d="M11 18h8v-7h-4V7h-3V6h4l4 4v9H10v-3h1v2Z" class="ColorScheme-Text" style="fill:currentColor;fill-opacity:1;stroke:none" transform="translate(1 1)"/>
    <path d="M4 10h8v4H4v-4Zm4-6a2 2 0 0 1 2 2v3H6V6a2 2 0 0 1 2-2Zm0-1a3 3 0 0 0-3 3v3H3v6h10V9h-2V6a3 3 0 0 0-3-3Z" class="ColorScheme-Text" style="fill:currentColor;fill-opacity:1;stroke:none" transform="translate(1 1)"/>
</svg>

<!DOCTYPE svg>
<svg viewBox="0 0 24 24" version="1.1" xmlns="http://www.w3.org/2000/svg">
    <defs>
        <style type="text/css" id="current-color-scheme">
            .ColorScheme-Text {
                color:#363636;
            }
        </style>
    </defs><g transform="translate(1,1)">
    <path class="ColorScheme-Text" style="fill:currentColor; fill-opacity:1; stroke:none" d="M 11 18 L 19 18 L 19 11 L 16 11 L 15 11 L 15 10 L 15 7 L 12 7 L 12 6 L 16 6 L 20 10 L 20 11 L 20 18 L 20 19 L 10 19 L 10 16 L 11 16 L 11 18 Z"/>
    <path class="ColorScheme-Text" style="fill:currentColor; fill-opacity:1; stroke:none" d="M 4 10 L 12 10 L 12 14 L 4 14 L 4 10 Z M 8 4 C 9.10457 4 10 4.89543 10 6 L 10 9 L 6 9 L 6 6 C 6 4.89543 6.89543 4 8 4 Z M 8 3 C 6.34314 3 5 4.34314 5 6 L 5 9 L 3 9 L 3 15 L 13 15 L 13 9 L 11 9 L 11 6 C 11 4.34314 9.65686 3 8 3 Z"/>
</g></svg>
